X: 4016
T: Blackwater, The
R: polka
M: 2/4
K: Amajor
|:E>F AB|ce c2|BA cA|BA FA/F/|
E>F AB|ce c2|BA cB|A2 A2:|
|:a2 f2|ec e2|A2 B>c|
[1 BA FE|ab/a/ fa/f/|ec e2|A2 B>c|BA A2:|
[2 BA FA|E>F AB|ce ce/c/|BA/B/ c/d/c/B/|A2 A2||

